source/img/footer/facebook-icon.svg

<svg width="16" height="30" viewBox="0 0 16 30" fill="none" xmlns="http://www.w3.org/2000/svg">
<path d="M12.3023 6.037C13.3012 6.037 14.3001 6.037 14.9994 5.72451C15.399 4.8912 15.5988 3.74541 15.5988 2.59962C15.399 2.59962 15.4989 2.28713 15.399 2.18297C15.399 1.97464 15.0993 1.97464 15.0993 1.76631C14.7996 1.55799 14.5998 1.34966 14.4 1.14134C13.7008 0.933013 13.0015 0.82885 12.2024 0.620524C11.4032 0.620524 10.3044 0.516359 9.60515 0.724685C7.00792 0.724685 5.60941 1.87048 4.3108 3.2246C4.3108 3.32876 4.31079 3.43292 4.2109 3.43292C3.61154 5.09953 4.11101 7.18279 4.01112 9.26605C4.11101 9.6827 4.11101 10.3077 4.2109 10.7243C3.21197 11.0368 2.01325 11.141 0.814525 11.2451C0.514845 11.5576 0.614738 12.3909 0.614738 13.0159C0.714631 13.6409 0.914419 14.1617 1.01431 14.6825C1.2141 14.8908 1.61367 15.0992 1.81346 15.2033C1.91335 15.2033 1.91335 15.3075 1.91335 15.3075C2.41282 15.62 3.41175 15.3075 4.2109 15.4117C4.11101 17.4949 4.51058 19.474 4.2109 21.3489C4.2109 21.6614 4.51058 21.7656 4.41069 22.1822C4.41069 23.2239 4.3108 24.2655 4.61048 24.9946C4.3108 25.5155 4.11101 26.0363 4.2109 26.8696C4.31079 26.8696 4.3108 27.0779 4.3108 27.1821C4.2109 27.7029 4.91016 27.3904 4.81026 27.9112C5.01005 28.432 4.41069 28.1195 4.41069 28.432V29.3695C4.91016 29.682 5.90909 29.5778 6.70824 29.5778C7.60728 29.1612 8.9059 29.057 9.50526 28.3279C10.0047 28.5362 10.4043 28.3279 10.704 28.1195C10.704 27.807 11.0037 27.807 10.9038 27.3904C10.9038 27.0779 10.704 26.8696 10.8039 26.4529V23.4322C10.6041 21.0365 10.8039 18.3282 10.5042 15.9325C11.4032 15.8283 12.4022 15.8283 13.1014 15.5158C13.501 14.995 13.501 14.2659 13.6009 13.5367C13.8007 13.3284 13.8007 12.9117 13.8007 12.4951C14.0005 12.2868 13.9006 11.766 13.9006 11.3493C13.8007 10.7243 13.7008 9.99519 13.1014 9.89103C12.2024 9.6827 11.1035 10.516 10.1046 10.2035C10.1046 9.05772 9.80494 7.80776 10.1046 6.66197C10.9038 6.45365 11.603 6.24532 12.3023 6.037ZM8.50632 11.0368C8.60622 11.3493 8.806 11.5576 8.9059 11.766C9.00579 11.766 9.10568 11.766 9.10568 11.8701C10.3044 11.9743 11.3033 11.766 12.2024 11.5576C12.2024 12.5993 11.9027 13.3284 11.7029 14.1617C11.0037 14.1617 10.2045 14.4742 9.70504 14.37C9.40536 14.5784 9.30547 14.8908 9.10568 15.0992C9.10568 15.5158 9.20557 15.62 9.10568 15.9325C8.90589 16.0366 9.00579 16.5575 8.9059 16.7658V18.3282C9.00579 18.6407 8.806 18.6407 8.806 18.849V22.4947C8.7061 22.8072 8.9059 22.8072 8.9059 23.0156V26.1404C9.00579 26.4529 8.806 26.9737 9.00579 27.0779C8.9059 27.4946 8.60621 27.0779 8.20664 27.1821C7.70717 27.2862 7.3076 27.5987 6.70824 27.5987C6.80813 27.1821 7.00792 26.9737 7.00792 26.4529C7.00792 26.0363 6.60835 26.1404 6.50845 25.9321C6.70824 25.3071 7.10781 24.7863 7.2077 24.0572C7.40749 23.5364 7.90696 22.7031 7.50739 22.1822C7.00792 22.0781 7.00792 22.4947 6.70824 22.5989C6.70824 22.7031 6.70824 22.8072 6.60834 22.8072C6.60834 22.9114 6.60835 23.0156 6.50845 23.0156C6.50845 23.1197 6.30867 23.1197 6.50845 23.0156C6.50845 22.9114 6.50845 22.8072 6.60834 22.8072C6.60834 22.7031 6.60834 22.5989 6.70824 22.5989V22.2864C7.10781 21.6614 7.40749 21.0365 7.50739 20.2032C7.70717 19.8907 7.80707 19.474 7.90696 19.1615C8.10675 18.849 8.20664 18.2241 8.00685 17.9116C7.50739 17.9116 7.20771 18.2241 7.10781 18.6407C6.80813 18.4324 7.3076 18.2241 7.2077 17.9116C7.3076 17.7032 7.40749 17.2866 7.50739 17.0783C7.70717 16.6616 8.10675 15.7241 7.50739 15.4117C7.10781 15.4117 6.90803 15.62 6.80813 15.9325C6.60835 16.1408 6.40856 16.3491 6.30867 16.6616C5.90909 16.5575 6.20877 15.9325 6.10888 15.5158C6.00898 14.995 6.20877 14.5784 6.10888 14.2659C5.50952 13.4326 4.11101 14.1617 2.91229 13.9534C2.81239 13.6409 2.7125 12.9117 2.81239 12.7034C3.81133 12.5993 5.30973 12.9117 6.00899 12.4951C6.00899 12.3909 6.00898 12.2868 6.10888 12.2868C6.20877 11.5576 5.8092 11.2451 5.60941 10.8285C5.8092 9.99519 5.60941 8.74523 5.7093 7.7036C5.90909 7.59944 6.00898 7.28695 6.20877 7.07863C6.30866 6.037 6.90802 5.51618 6.90802 4.47455C6.60834 4.47455 6.30867 4.37039 6.30867 4.68288C6.00898 4.57872 5.90909 5.20369 5.8092 4.8912C5.7093 4.37039 6.00898 4.26622 6.10888 3.84957C6.70824 3.43292 7.3076 3.01627 8.00685 2.59962C9.70504 2.3913 12.602 2.18297 14.1004 2.80794C14.2002 3.43292 13.8007 3.74541 13.9006 4.37039H12.4022C11.3033 4.57871 10.4043 5.09953 9.40536 5.41202C9.20558 5.51618 9.10568 5.72451 8.9059 5.82867C8.9059 6.24532 8.70611 6.45365 8.60621 6.8703C8.30653 8.32858 8.50632 9.57854 8.50632 11.0368Z" fill="black"/>
</svg>

<svg width="16" height="30" fill="none" xmlns="http://www.w3.org/2000/svg"><path d="M12.3 6.04c1 0 2 0 2.7-.32.4-.83.6-1.97.6-3.12-.2 0-.1-.31-.2-.42 0-.2-.3-.2-.3-.41-.3-.21-.5-.42-.7-.63-.7-.2-1.4-.31-2.2-.52-.8 0-1.9-.1-2.6.1-2.6 0-4 1.15-5.29 2.5 0 .1 0 .21-.1.21-.6 1.67-.1 3.75-.2 5.84.1.41.1 1.04.2 1.45-1 .32-2.2.42-3.4.53-.3.3-.2 1.14-.2 1.77.1.62.3 1.14.4 1.66.2.21.6.42.8.52.1 0 .1.1.1.1.5.32 1.5 0 2.3.11-.1 2.08.3 4.06 0 5.94 0 .31.3.42.2.83 0 1.04-.1 2.09.2 2.81-.3.53-.5 1.05-.4 1.88.1 0 .1.2.1.31-.1.52.6.21.5.73.2.52-.4.2-.4.52v.94c.5.31 1.5.2 2.3.2.9-.4 2.2-.51 2.8-1.24.5.2.9 0 1.2-.21 0-.31.3-.31.2-.73 0-.31-.2-.52-.1-.94v-3.02c-.2-2.4 0-5.1-.3-7.5.9-.1 1.9-.1 2.6-.41.4-.53.4-1.25.5-1.98.2-.21.2-.63.2-1.04.2-.21.1-.73.1-1.15-.1-.63-.2-1.35-.8-1.46-.9-.2-2 .63-3 .31 0-1.14-.3-2.4 0-3.54.8-.2 1.5-.41 2.2-.62zm-3.8 5c.1.3.3.52.4.73.1 0 .2 0 .2.1 1.2.1 2.2-.1 3.1-.31 0 1.04-.3 1.77-.5 2.6-.7 0-1.5.31-2 .21-.3.2-.4.52-.6.73 0 .42.1.52 0 .83-.2.1-.1.63-.2.84v1.56c.1.31-.1.31-.1.52v3.64c-.1.32.1.32.1.53v3.12c.1.31-.1.83.1.94-.1.41-.4 0-.8.1-.5.1-.9.42-1.5.42.1-.42.3-.63.3-1.15 0-.41-.4-.31-.5-.52.2-.62.6-1.14.7-1.87.2-.52.7-1.36.3-1.88-.5-.1-.5.31-.8.42 0 .1 0 .2-.1.2 0 .11 0 .22-.1.22 0 .1-.2.1 0 0 0-.1 0-.21.1-.21 0-.1 0-.21.1-.21v-.31c.4-.63.7-1.25.8-2.09.2-.3.3-.73.4-1.04.2-.31.3-.94.1-1.25-.5 0-.8.31-.9.73-.3-.2.2-.42.1-.73.1-.2.2-.62.3-.83.2-.42.6-1.36 0-1.67-.4 0-.6.21-.7.52-.2.21-.4.42-.5.73-.4-.1-.1-.73-.2-1.14-.1-.53.1-.94 0-1.25-.59-.84-1.99-.1-3.19-.32-.1-.3-.2-1.04-.1-1.25 1-.1 2.5.21 3.2-.2 0-.1 0-.21.1-.21.1-.73-.3-1.04-.5-1.46.2-.83 0-2.08.1-3.13.2-.1.3-.41.5-.62.1-1.04.7-1.56.7-2.6-.3 0-.6-.11-.6.2-.3-.1-.4.52-.5.21-.1-.52.2-.62.3-1.04.6-.42 1.2-.83 1.9-1.25 1.7-.2 4.6-.42 6.09.2.1.63-.3.95-.2 1.57h-1.5c-1.1.2-2 .73-3 1.04-.2.1-.3.31-.5.42 0 .42-.2.62-.3 1.04-.3 1.46-.1 2.7-.1 4.17z" fill="#000"/></svg>
